src/content/resume/images/lemon-labs.svg

<svg width="128" height="64" viewBox="0 0 128 64" fill="none" xmlns="http://www.w3.org/2000/svg">
<path d="M66.7241 25.4477C66.7241 24.2536 67.708 23.2529 68.902 23.2529C70.1045 23.2529 71.0883 24.2536 71.0883 25.4477C71.0883 26.6501 70.1045 27.6256 68.902 27.6256C67.708 27.6256 66.7241 26.6501 66.7241 25.4477Z" fill="currentColor"/>
<path d="M56.2571 32.0948L55.2312 34.3988H57.3334L56.2991 32.0948H56.2571Z" fill="currentColor"/>
<path d="M60.7399 33.0702V31.3044H61.8751C62.4133 31.3044 62.7413 31.6575 62.7413 32.1705C62.7413 32.675 62.4133 33.0702 61.8751 33.0702H60.7399Z" fill="currentColor"/>
<path d="M60.7315 35.6265V33.827H61.8836C62.4301 33.827 62.9179 34.197 62.9179 34.71C62.9179 35.2313 62.5226 35.6265 62.0097 35.6265H60.7315Z" fill="currentColor"/>
<path fill-rule="evenodd" clip-rule="evenodd" d="M64 54C76.1503 54 86 44.1503 86 32C86 19.8497 76.1503 10 64 10C51.8497 10 42 19.8497 42 32C42 44.1503 51.8497 54 64 54ZM58.7597 28.3824C58.642 28.3824 58.5831 28.3067 58.6 28.189L59.6427 22.5382C59.6595 22.4709 59.7267 22.4121 59.794 22.4121H59.9286C59.979 22.4121 60.0547 22.4541 60.0715 22.5046L61.829 26.8015H61.8626L63.6116 22.5046C63.6285 22.4541 63.6957 22.4121 63.7546 22.4121H63.8891C63.9564 22.4121 64.0237 22.4709 64.0405 22.5382L65.0748 28.189C65.1 28.3067 65.0412 28.3824 64.9234 28.3824H64.3769C64.3012 28.3824 64.2339 28.3235 64.2171 28.2646L63.5948 24.5059H63.5696L62.056 28.374C62.0392 28.4244 61.9887 28.4665 61.9131 28.4665H61.7617C61.6944 28.4665 61.6356 28.4244 61.6187 28.374L60.0967 24.5059H60.0631L59.4577 28.2646C59.4492 28.3235 59.3736 28.3824 59.3063 28.3824H58.7597ZM49.8556 28.2226C49.8556 28.3067 49.9229 28.3824 50.0154 28.3824H53.009C53.1015 28.3824 53.1687 28.3067 53.1687 28.2226V27.7601C53.1687 27.676 53.1015 27.6003 53.009 27.6003H50.7302V22.6559C50.7302 22.5718 50.6545 22.4961 50.5704 22.4961H50.0154C49.9229 22.4961 49.8556 22.5718 49.8556 22.6559V28.2226ZM54.0519 28.2226C54.0519 28.3067 54.1191 28.3824 54.2116 28.3824H57.5752C57.6677 28.3824 57.735 28.3067 57.735 28.2226V27.7601C57.735 27.676 57.6677 27.6003 57.5752 27.6003H54.918V25.7924H57.1631C57.2472 25.7924 57.3229 25.7252 57.3229 25.6327V25.1618C57.3229 25.0777 57.2472 25.002 57.1631 25.002H54.918V23.2866H57.5752C57.6677 23.2866 57.735 23.2109 57.735 23.1268V22.6559C57.735 22.5718 57.6677 22.4961 57.5752 22.4961H54.2116C54.1191 22.4961 54.0519 22.5718 54.0519 22.6559V28.2226ZM65.8832 25.4477C65.8832 27.1294 67.2202 28.4665 68.902 28.4665C70.5838 28.4665 71.9292 27.1294 71.9292 25.4477C71.9292 23.7659 70.5838 22.4121 68.902 22.4121C67.2202 22.4121 65.8832 23.7659 65.8832 25.4477ZM73.2877 28.3824C73.2036 28.3824 73.1279 28.3067 73.1279 28.2226V22.5634C73.1279 22.4793 73.2036 22.4121 73.2877 22.4121H73.4979L77.1473 26.6333H77.1557V22.6559C77.1557 22.5718 77.223 22.4961 77.3155 22.4961H77.8537C77.9378 22.4961 78.0134 22.5718 78.0134 22.6559V28.3151C78.0134 28.3992 77.9378 28.4665 77.8537 28.4665H77.635L73.9856 24.1275H73.9772V28.2226C73.9772 28.3067 73.9099 28.3824 73.8174 28.3824H73.2877ZM49.8556 36.2404C49.8556 36.3245 49.9229 36.4001 50.0154 36.4001H53.009C53.1015 36.4001 53.1687 36.3245 53.1687 36.2404V35.7779C53.1687 35.6938 53.1015 35.6181 53.009 35.6181H50.7302V30.6737C50.7302 30.5896 50.6545 30.5139 50.5704 30.5139H50.0154C49.9229 30.5139 49.8556 30.5896 49.8556 30.6737V36.2404ZM54.1969 36.4001H53.6672C53.541 36.4001 53.4737 36.2908 53.5242 36.1815L56.1057 30.5223C56.131 30.4719 56.2066 30.4298 56.2487 30.4298H56.3328C56.3748 30.4298 56.4505 30.4719 56.4757 30.5223L59.0404 36.1815C59.0909 36.2908 59.0236 36.4001 58.8975 36.4001H58.3677C58.2668 36.4001 58.208 36.3497 58.1743 36.274L57.653 35.122H54.9033C54.8192 35.3154 54.733 35.5067 54.6468 35.698C54.5606 35.8893 54.4744 36.0806 54.3903 36.274C54.3651 36.3329 54.2978 36.4001 54.1969 36.4001ZM59.8822 36.2404C59.8822 36.3245 59.9495 36.4001 60.042 36.4001H62.0181C63.0776 36.4001 63.8512 35.719 63.8512 34.7772C63.8512 34.0036 63.2458 33.5916 62.8001 33.4066C63.1953 33.1795 63.6747 32.7171 63.6747 32.0696C63.6747 31.1866 62.9431 30.5139 61.9256 30.5139H60.042C59.9495 30.5139 59.8822 30.5896 59.8822 30.6737V36.2404ZM66.5931 36.4842C65.5672 36.4842 64.9198 35.9461 64.7852 35.8199C64.7095 35.7527 64.6507 35.6938 64.7348 35.5509C64.7726 35.4962 64.8083 35.4373 64.8441 35.3785C64.8798 35.3196 64.9156 35.2607 64.9534 35.2061C65.0291 35.0968 65.1468 35.0631 65.2393 35.1388C65.2897 35.1809 65.9372 35.719 66.5847 35.719C67.1649 35.719 67.5349 35.3659 67.5349 34.937C67.5349 34.4325 67.0977 34.1129 66.2652 33.7682C65.4075 33.4066 64.7348 32.9609 64.7348 31.9855C64.7348 31.3296 65.2393 30.4298 66.5763 30.4298C67.4172 30.4298 68.0479 30.8671 68.132 30.926C68.1992 30.968 68.2665 31.0857 68.1824 31.2119C68.1488 31.2623 68.113 31.3169 68.0773 31.3716C68.0416 31.4263 68.0058 31.4809 67.9722 31.5314C67.9049 31.6407 67.7956 31.6912 67.6779 31.6155C67.673 31.6127 67.6647 31.6076 67.6531 31.6005C67.5231 31.521 66.9904 31.195 66.5427 31.195C65.8363 31.195 65.5925 31.6407 65.5925 31.9518C65.5925 32.4312 65.9625 32.7255 66.6604 33.0114C67.6358 33.4066 68.4683 33.8691 68.4683 34.895C68.4683 35.7695 67.6863 36.4842 66.5931 36.4842Z" fill="currentColor"/>
</svg>

<svg xmlns="http://www.w3.org/2000/svg" width="128" height="64" fill="none" viewBox="0 0 128 64"><path fill="currentColor" d="M66.724 25.448c0-1.194.984-2.195 2.178-2.195 1.203 0 2.186 1 2.186 2.195a2.186 2.186 0 0 1-2.186 2.178 2.184 2.184 0 0 1-2.178-2.178ZM56.257 32.095l-1.026 2.304h2.102L56.3 32.095h-.042ZM60.74 33.07v-1.766h1.135c.538 0 .866.354.866.866 0 .505-.328.9-.866.9H60.74ZM60.731 35.627v-1.8h1.153c.546 0 1.034.37 1.034.883a.896.896 0 0 1-.908.916H60.73Z"/><path fill="currentColor" fill-rule="evenodd" d="M64 54c12.15 0 22-9.85 22-22s-9.85-22-22-22-22 9.85-22 22 9.85 22 22 22Zm-5.24-25.618c-.118 0-.177-.075-.16-.193l1.043-5.65c.017-.068.084-.127.151-.127h.135c.05 0 .126.042.142.093l1.758 4.297h.034l1.749-4.297c.017-.05.084-.093.143-.093h.134c.067 0 .135.059.151.126l1.035 5.651c.025.118-.034.193-.152.193h-.546a.175.175 0 0 1-.16-.117l-.622-3.76h-.025l-1.514 3.869c-.017.05-.067.093-.143.093h-.151c-.068 0-.126-.043-.143-.093l-1.522-3.868h-.034l-.605 3.759c-.009.058-.084.117-.152.117h-.546Zm-8.904-.16c0 .085.067.16.16.16h2.993a.16.16 0 0 0 .16-.16v-.462a.16.16 0 0 0-.16-.16H50.73v-4.944a.165.165 0 0 0-.16-.16h-.555a.16.16 0 0 0-.16.16v5.567Zm4.196 0c0 .085.067.16.16.16h3.363a.16.16 0 0 0 .16-.16v-.462a.16.16 0 0 0-.16-.16h-2.657v-1.808h2.245a.16.16 0 0 0 .16-.16v-.47a.165.165 0 0 0-.16-.16h-2.245v-1.715h2.657a.16.16 0 0 0 .16-.16v-.471a.16.16 0 0 0-.16-.16h-3.363a.16.16 0 0 0-.16.16v5.567Zm11.831-2.774a3 3 0 0 0 3.019 3.018 3.008 3.008 0 0 0 3.027-3.018 3.022 3.022 0 0 0-3.027-3.036 3.015 3.015 0 0 0-3.019 3.036Zm7.405 2.934a.165.165 0 0 1-.16-.16v-5.659c0-.084.076-.15.16-.15h.21l3.65 4.22h.008v-3.977a.16.16 0 0 1 .16-.16h.538c.084 0 .16.076.16.16v5.66c0 .083-.076.15-.16.15h-.219l-3.65-4.338h-.008v4.095a.16.16 0 0 1-.16.16h-.53ZM49.856 36.24c0 .084.067.16.16.16h2.993a.16.16 0 0 0 .16-.16v-.462a.16.16 0 0 0-.16-.16H50.73v-4.944a.165.165 0 0 0-.16-.16h-.555a.16.16 0 0 0-.16.16v5.566Zm4.34.16h-.529c-.126 0-.193-.11-.143-.218l2.582-5.66c.025-.05.1-.092.143-.092h.084c.042 0 .117.042.143.092l2.564 5.66c.05.109-.016.218-.142.218h-.53c-.101 0-.16-.05-.194-.126l-.521-1.152h-2.75c-.084.193-.17.385-.256.576-.086.191-.173.383-.257.576a.211.211 0 0 1-.193.126Zm5.686-.16c0 .084.068.16.16.16h1.976c1.06 0 1.833-.681 1.833-1.623 0-.773-.605-1.185-1.05-1.37.394-.227.874-.69.874-1.337 0-.883-.732-1.556-1.75-1.556h-1.883a.16.16 0 0 0-.16.16v5.566Zm6.711.244c-1.026 0-1.673-.538-1.808-.664-.075-.067-.134-.126-.05-.27.038-.054.073-.113.11-.171.035-.06.07-.118.108-.173.076-.11.194-.143.286-.067.05.042.698.58 1.346.58.58 0 .95-.353.95-.782 0-.505-.437-.824-1.27-1.169-.858-.361-1.53-.807-1.53-1.783 0-.655.504-1.555 1.841-1.555.841 0 1.472.437 1.556.496a.2.2 0 0 1 .05.286 19.976 19.976 0 0 0-.21.32c-.067.109-.176.16-.294.084l-.025-.015c-.13-.08-.663-.406-1.11-.406-.707 0-.95.446-.95.757 0 .48.37.773 1.067 1.06.976.395 1.808.857 1.808 1.883 0 .874-.782 1.59-1.875 1.59Z" clip-rule="evenodd"/></svg>
